icons/order-play-fill.svg

<svg xmlns="http://www.w3.org/2000/svg" width="24" height="24" fill="none"><g clip-path="url(#a)"><g><path fill="#121212" d="M17 4.00001V2.06801C16.9998 1.97292 17.0268 1.87976 17.0777 1.79945C17.1287 1.71914 17.2014 1.65502 17.2875 1.6146C17.3736 1.57419 17.4694 1.55916 17.5637 1.57128C17.658 1.58339 17.7469 1.62215 17.82 1.68301L21.94 5.11601C22.019 5.18186 22.0757 5.27044 22.1025 5.36969C22.1293 5.46894 22.1248 5.57404 22.0898 5.67067C22.0547 5.7673 21.9906 5.85077 21.9064 5.90971C21.8222 5.96864 21.7218 6.00017 21.619 6.00001H2V4.00001H17ZM2 18H22V20H2V18ZM2 11H22V13H2V11Z"/></g></g><defs><clipPath id="a"><rect width="24" height="24" fill="white"/></clipPath></defs></svg>

<svg width="24" height="24" fill="none" xmlns="http://www.w3.org/2000/svg"><g clip-path="url(#a)"><path d="M17 4V2.068a.5.5 0 0 1 .82-.385l4.12 3.433a.5.5 0 0 1-.321.884H2V4h15ZM2 18h20v2H2v-2Zm0-7h20v2H2v-2Z" /></g><defs><clipPath id="a"><path fill="#fff" d="M0 0h24v24H0z"/></clipPath></defs></svg>
